X: 01
T:Madam Catbrin's Hornpipe
M:3/2
L:1/8
Q:
B:John of the Greeny Cheshire Way
S:DrAJDoyle:aol.com tradtunes 2003-1-1
K:Am
| e2 c4 G2 E4 | D2 d4 a2 g2 f2 | e2 c4 G2 E4 | C2 c4 a2 g2 f2 ||!
| e2 c2 g2 c2 e2 c2 | f2 d4 a2 g2 f2 | e2 c2 g2 c2 e2 c2 | g2 c2 e2 c2 f2 d2
||!
| e2 c2 g2 c2 e2 c2 | a2 g2 f2 a2 a2 gf | e2 c4 C2 EFGE | C2 c4 a2 g2 f2 ||!
| e2 c2 G2 A2 E2 G2 | D2 d4 ef gfed | e2 c2 G2 A2 E2 G2 | C2 c2 efge defg ||!
| e2 c4 C2 E4 | D2 d4 a2 g2 f2 | e2 c4 C2 EFGE | C2 c4 e2 defg ||!
| e2 c2 g2 c2 efge | f2 d2 a2 d2 fgaf | e2 c2 g2 c2 efge | g2 c2 efge fg af
||!
| e2 c2 g2 c2 efge | agfe d2 a2 fgaf | gfed cBAG EFGE | C2 c2 efge defg ||!
